_inc/images/systems/logos/snesmsu1.svg

<svg viewBox="0 0 264 95" xmlns="http://www.w3.org/2000/svg">
    <path style="fill-opacity:1;fill-rule:evenodd;stroke:#000;stroke-width:0;stroke-miterlimit:4;stroke-opacity:1;stroke-dasharray:none;fill:#fff" d="M61.875 0 0 61.957h16.5l41.25-41.305v41.305H66l41.25-41.305v41.305h12.375V0h-8.25l-41.25 41.304V0h-8.25Zm80.438 0c-10.251 0-18.563 8.323-18.563 18.587s8.312 18.587 18.563 18.587h16.5c3.415 0 6.187 2.776 6.187 6.196a6.193 6.193 0 0 1-6.187 6.195H123.75v12.392h35.063c10.25 0 18.562-8.323 18.562-18.587s-8.312-18.587-18.562-18.587h-16.5a6.194 6.194 0 0 1-6.188-6.196 6.194 6.194 0 0 1 6.188-6.196h35.062V0h-35.062ZM181.5 0v43.37c0 10.264 8.312 18.587 18.563 18.587h16.5c10.25 0 18.562-8.323 18.562-18.587V0H222.75v43.37a6.193 6.193 0 0 1-6.187 6.195h-16.5a6.193 6.193 0 0 1-6.188-6.195V0H181.5Zm74.25 0-16.5 16.522v8.261h12.375v37.174H264V0h-8.25Z"/>
    <path style="fill-opacity:1;stroke:#000;stroke-width:0;stroke-linecap:butt;stroke-linejoin:miter;stroke-miterlimit:4;stroke-opacity:1;stroke-dasharray:none;fill:#fff" d="M0 66.087v8.261h264v-8.261Z"/>
    <path d="M17.115 78.222h-5.074L9.001 91.2 5.903 78.222H.767v16.344h3.271V80.704l3.127 13.862h3.469l3.209-13.862v13.862h3.272V78.222m15.819 0H20.518v16.344h12.816v-2.891h-9.376v-4.234h8.258V84.55h-8.258v-3.436h8.976v-2.892m3.263 16.344h7.314c1.864 0 3.498-.615 4.615-1.706 1.551-1.569 2.409-3.985 2.409-6.807 0-4.96-2.52-7.831-6.88-7.831h-7.458v16.344m3.444-13.543h3.383c1.147 0 2.009.297 2.611.863.858.843 1.316 2.326 1.316 4.258 0 3.552-1.432 5.622-3.869 5.622h-3.441V81.023m16.768-2.801h-3.526v16.344h3.526V78.222M63.306 91.2h6.225l1.089 3.366h3.845L68.5 78.222h-4.076l-6.022 16.344h3.729l1.175-3.366m3.127-9.359 2.125 6.558h-4.303l2.178-6.558m29.23-3.619H83.247v16.344h12.82v-2.891h-9.38v-4.234h8.262V84.55h-8.262v-3.436h8.976v-2.892m13.592 11.474-6.769-11.474h-3.701v16.344h3.272V82.844l6.967 11.722h3.498V78.222h-3.267v11.474m16.657-2.482v7.352h3.526V78.222h-3.526v6.192h-6.596v-6.192h-3.531v16.344h3.531v-7.352h6.596m10.543 3.986h6.225l1.089 3.366h3.844l-5.965-16.344h-4.071l-6.023 16.344h3.725l1.176-3.366m3.127-9.359 2.124 6.558h-4.302l2.178-6.558m20.583 7.855-6.764-11.474H149.7v16.344h3.267V82.844l6.972 11.722h3.498V78.222h-3.272v11.474m20.96-6.125c-.174-1.297-.429-1.979-1.06-2.891-1.292-1.842-3.498-2.892-6.167-2.892-4.818 0-7.83 3.326-7.83 8.654 0 5.304 2.954 8.558 7.743 8.558 2.236 0 4.129-.727 5.42-2.119.978-1.045 1.436-1.978 1.894-3.916h-3.527c-.26.913-.429 1.322-.805 1.801-.688.843-1.691 1.277-2.924 1.277-2.636 0-4.216-2.099-4.216-5.58 0-3.598 1.605-5.713 4.331-5.713 1.176 0 2.178.409 2.781 1.091.375.478.573.842.833 1.73h3.527m15.077-5.349h-12.417v16.344h12.821v-2.891h-9.38v-4.234h8.262V84.55h-8.262v-3.436h8.976v-2.892m19.47 0h-5.078l-3.04 12.978-3.094-12.978h-5.136v16.344h3.271V80.704l3.127 13.862h3.469l3.209-13.862v13.862h3.272V78.222m15.819 0h-12.42v16.344h12.82v-2.891h-9.376v-4.234h8.258V84.55h-8.258v-3.436h8.976v-2.892m13.588 11.474-6.77-11.474h-3.695v16.344h3.267V82.844l6.967 11.722h3.502V78.222h-3.271v11.474m13.818-8.582H264v-2.892h-13.736v2.892h5.102v13.452h3.531V81.114" style="fill:#fff"/>
</svg>

<?xml version="1.0" encoding="utf-8"?>
<svg viewBox="0 0 264 95" xmlns="http://www.w3.org/2000/svg">
  <path style="fill-opacity: 1; fill-rule: evenodd; stroke: rgb(0, 0, 0); stroke-width: 0; stroke-miterlimit: 4; stroke-opacity: 1; stroke-dasharray: none; fill: rgb(255, 255, 255);" d="M 61.875 0 L 0 61.957 L 16.5 61.957 L 57.75 20.652 L 57.75 61.957 L 66 61.957 L 107.25 20.652 L 107.25 61.957 L 119.625 61.957 L 119.625 0 L 111.375 0 L 70.125 41.304 L 70.125 0 L 61.875 0 Z M 142.313 0 C 132.062 0 123.75 8.323 123.75 18.587 C 123.75 28.851 132.062 37.174 142.313 37.174 L 158.813 37.174 C 162.228 37.174 165 39.95 165 43.37 C 165 46.79 162.228 49.565 158.813 49.565 L 123.75 49.565 L 123.75 61.957 L 158.813 61.957 C 169.063 61.957 177.375 53.634 177.375 43.37 C 177.375 33.106 169.063 24.783 158.813 24.783 L 142.313 24.783 C 138.897 24.783 136.125 22.007 136.125 18.587 C 136.125 15.167 138.897 12.391 142.313 12.391 L 177.375 12.391 L 177.375 0 L 142.313 0 Z M 181.5 0 L 181.5 43.37 C 181.5 53.634 189.812 61.957 200.063 61.957 L 216.563 61.957 C 226.813 61.957 235.125 53.634 235.125 43.37 L 235.125 0 L 222.75 0 L 222.75 43.37 C 222.75 46.79 219.978 49.565 216.563 49.565 L 200.063 49.565 C 196.647 49.565 193.875 46.79 193.875 43.37 L 193.875 0 L 181.5 0 Z M 255.75 0 L 239.25 16.522 L 239.25 24.783 L 251.625 24.783 L 251.625 61.957 L 264 61.957 L 264 0 L 255.75 0 Z" id="path3758"/>
  <path style="fill-opacity: 1; stroke: rgb(0, 0, 0); stroke-width: 0; stroke-linecap: butt; stroke-linejoin: miter; stroke-miterlimit: 4; stroke-opacity: 1; stroke-dasharray: none; fill: rgb(255, 255, 255);" d="M 0 66.087 L 0 74.348 L 264 74.348 L 264 66.087 Z" id="path3798"/>
  <path d="M 17.115 78.222 L 12.041 78.222 L 9.001 91.2 L 5.903 78.222 L 0.767 78.222 L 0.767 94.566 L 4.038 94.566 L 4.038 80.704 L 7.165 94.566 L 10.634 94.566 L 13.843 80.704 L 13.843 94.566 L 17.115 94.566 L 17.115 78.222" id="path3806" style="fill: rgb(255, 255, 255);"/>
  <path d="M 32.934 78.222 L 20.518 78.222 L 20.518 94.566 L 33.334 94.566 L 33.334 91.675 L 23.958 91.675 L 23.958 87.441 L 32.216 87.441 L 32.216 84.55 L 23.958 84.55 L 23.958 81.114 L 32.934 81.114 L 32.934 78.222" id="path3808" style="fill: rgb(255, 255, 255);"/>
  <path d="M 36.197 94.566 L 43.511 94.566 C 45.375 94.566 47.009 93.951 48.126 92.86 C 49.677 91.291 50.535 88.875 50.535 86.053 C 50.535 81.093 48.015 78.222 43.655 78.222 L 36.197 78.222 L 36.197 94.566 M 39.641 81.023 L 43.024 81.023 C 44.171 81.023 45.033 81.32 45.635 81.886 C 46.493 82.729 46.951 84.212 46.951 86.144 C 46.951 89.696 45.519 91.766 43.082 91.766 L 39.641 91.766 L 39.641 81.023" id="path3810" style="fill: rgb(255, 255, 255);"/>
  <path d="M 56.409 78.222 L 52.883 78.222 L 52.883 94.566 L 56.409 94.566 L 56.409 78.222" id="path3812" style="fill: rgb(255, 255, 255);"/>
  <path d="M 63.306 91.2 L 69.531 91.2 L 70.62 94.566 L 74.465 94.566 L 68.5 78.222 L 64.424 78.222 L 58.402 94.566 L 62.131 94.566 L 63.306 91.2 M 66.433 81.841 L 68.558 88.399 L 64.255 88.399 L 66.433 81.841" id="path3814" style="fill: rgb(255, 255, 255);"/>
  <path d="M 95.663 78.222 L 83.247 78.222 L 83.247 94.566 L 96.067 94.566 L 96.067 91.675 L 86.687 91.675 L 86.687 87.441 L 94.949 87.441 L 94.949 84.55 L 86.687 84.55 L 86.687 81.114 L 95.663 81.114 L 95.663 78.222" id="path3816" style="fill: rgb(255, 255, 255);"/>
  <path d="M 109.255 89.696 L 102.486 78.222 L 98.785 78.222 L 98.785 94.566 L 102.057 94.566 L 102.057 82.844 L 109.024 94.566 L 112.522 94.566 L 112.522 78.222 L 109.255 78.222 L 109.255 89.696" id="path3818" style="fill: rgb(255, 255, 255);"/>
  <path d="M 125.912 87.214 L 125.912 94.566 L 129.438 94.566 L 129.438 78.222 L 125.912 78.222 L 125.912 84.414 L 119.316 84.414 L 119.316 78.222 L 115.785 78.222 L 115.785 94.566 L 119.316 94.566 L 119.316 87.214 L 125.912 87.214" id="path3820" style="fill: rgb(255, 255, 255);"/>
  <path d="M 136.455 91.2 L 142.68 91.2 L 143.769 94.566 L 147.613 94.566 L 141.648 78.222 L 137.577 78.222 L 131.554 94.566 L 135.279 94.566 L 136.455 91.2 M 139.582 81.841 L 141.706 88.399 L 137.404 88.399 L 139.582 81.841" id="path3822" style="fill: rgb(255, 255, 255);"/>
  <path d="M 160.165 89.696 L 153.401 78.222 L 149.7 78.222 L 149.7 94.566 L 152.967 94.566 L 152.967 82.844 L 159.939 94.566 L 163.437 94.566 L 163.437 78.222 L 160.165 78.222 L 160.165 89.696" id="path3824" style="fill: rgb(255, 255, 255);"/>
  <path d="M 181.125 83.571 C 180.951 82.274 180.696 81.592 180.065 80.68 C 178.773 78.838 176.567 77.788 173.898 77.788 C 169.08 77.788 166.068 81.114 166.068 86.442 C 166.068 91.746 169.022 95 173.811 95 C 176.047 95 177.94 94.273 179.231 92.881 C 180.209 91.836 180.667 90.903 181.125 88.965 L 177.598 88.965 C 177.338 89.878 177.169 90.287 176.793 90.766 C 176.105 91.609 175.102 92.043 173.869 92.043 C 171.233 92.043 169.653 89.944 169.653 86.463 C 169.653 82.865 171.258 80.75 173.984 80.75 C 175.16 80.75 176.162 81.159 176.765 81.841 C 177.14 82.319 177.338 82.683 177.598 83.571 L 181.125 83.571" id="path3826" style="fill: rgb(255, 255, 255);"/>
  <path d="M 196.202 78.222 L 183.785 78.222 L 183.785 94.566 L 196.606 94.566 L 196.606 91.675 L 187.226 91.675 L 187.226 87.441 L 195.488 87.441 L 195.488 84.55 L 187.226 84.55 L 187.226 81.114 L 196.202 81.114 L 196.202 78.222" id="path3828" style="fill: rgb(255, 255, 255);"/>
  <path d="M 215.672 78.222 L 210.594 78.222 L 207.554 91.2 L 204.46 78.222 L 199.324 78.222 L 199.324 94.566 L 202.595 94.566 L 202.595 80.704 L 205.722 94.566 L 209.191 94.566 L 212.4 80.704 L 212.4 94.566 L 215.672 94.566 L 215.672 78.222" id="path3830" style="fill: rgb(255, 255, 255);"/>
  <path d="M 231.491 78.222 L 219.071 78.222 L 219.071 94.566 L 231.891 94.566 L 231.891 91.675 L 222.515 91.675 L 222.515 87.441 L 230.773 87.441 L 230.773 84.55 L 222.515 84.55 L 222.515 81.114 L 231.491 81.114 L 231.491 78.222" id="path3832" style="fill: rgb(255, 255, 255);"/>
  <path d="M 245.079 89.696 L 238.309 78.222 L 234.614 78.222 L 234.614 94.566 L 237.881 94.566 L 237.881 82.844 L 244.848 94.566 L 248.35 94.566 L 248.35 78.222 L 245.079 78.222 L 245.079 89.696" id="path3834" style="fill: rgb(255, 255, 255);"/>
  <path d="M 258.897 81.114 L 264 81.114 L 264 78.222 L 250.264 78.222 L 250.264 81.114 L 255.366 81.114 L 255.366 94.566 L 258.897 94.566 L 258.897 81.114" id="path3836" style="fill: rgb(255, 255, 255);"/>
</svg>
